X: 1
T: Jim Dougal of Eyemouth
T: 8x32S3C
P: The Eyemouth Petronella
R: strathspey
C: By Muriel Johnstone
C: Arr. T. Traub 7-29-03
M: 4/4
L: 1/8
K: A
R: strathspey
AB|"A"c2 c<A "D"F2 F<A|"A"E<A "E"E>D "A"C2 CD|"A"E2 E>F E>A c<e|"Bm"D>F B<d "E"c>B G<E|"A"c2 c<A "D"F2 F<A|
"A"E<A "E"E>D "A"C2 CD|"A"E>A c<e "D"F>A d<f|"E"e<a c>B "A"A2||AB|"F#m"c2 c<f "D"a>g fe|"A"e2 "E"d<e "A"c2 c>B|
"F#m"A2 Ac "Bm"d>c B<A|"B7"B2 AA c<e "D"f>g "D#dim"a>b|"A"c'2 c2 "Bm"d>c B<A|"E"E<A c>B "A"A2 |]
